X:1
T:Jabe Meadow -- Hornpipe
R:hornpipe
B:Cole's 1000 Fiddle Tunes
M:2/4
L:1/16
K:Bb
uFE|DB,DF BEGB|AFAc BABc|dBgf edcB|(3v.c.c.c(ucB) vGBFE|
DB,DF BEGB|AFAc BABc|dBbg fdBd|cBGA B2:|
|:uf2|gf=ef dfBc|dBAB GBFE|DFBc dBAB|gffd .c2vduf|
gf=ef dfBc|dBAB GBFE|DFBd ceAc|dcGA B2:|
